static/assets/images/tokens/scusd.svg

<svg width="256" height="256" viewBox="0 0 256 256" fill="none" xmlns="http://www.w3.org/2000/svg">
<path d="M128 256C198.692 256 256 198.692 256 128C256 57.3076 198.692 0 128 0C57.3076 0 0 57.3076 0 128C0 198.692 57.3076 256 128 256Z" fill="url(#paint0_linear_10907_1098)"/>
<path d="M127.903 78.3772C122.754 78.3129 117.927 79.1496 113.422 80.8873C108.981 82.5608 105.345 84.8778 102.513 87.8384C99.6805 90.799 98.2649 94.2424 98.2649 98.1684C98.2649 102.996 99.584 106.664 102.223 109.174C104.862 111.684 108.402 113.551 112.843 114.774C117.348 115.932 122.368 116.994 127.903 117.96C136.785 119.375 144.991 121.725 152.522 125.007C160.116 128.29 166.198 132.667 170.768 138.137C175.402 143.543 177.719 150.205 177.719 158.121C177.719 165.394 175.788 171.863 171.927 177.526C168.065 183.126 162.884 187.663 156.383 191.139C149.948 194.55 142.835 196.706 135.048 197.607V217.205H120.856V197.607C114.355 196.964 108.176 195.419 102.32 192.973C96.5272 190.527 91.4748 187.277 87.1626 183.222C82.8504 179.167 79.7288 174.469 77.798 169.127L96.6237 162.079C97.7182 165.169 99.8096 167.936 102.899 170.382C106.052 172.763 109.786 174.63 114.098 175.982C118.475 177.333 123.076 178.009 127.903 178.009C133.053 178.009 137.88 177.173 142.385 175.499C146.955 173.825 150.623 171.508 153.391 168.548C156.223 165.588 157.639 162.112 157.639 158.121C157.639 154.002 156.158 150.623 153.198 147.984C150.301 145.345 146.569 143.254 141.999 141.709C137.494 140.164 132.795 139.006 127.903 138.233C118.442 136.689 109.947 134.436 102.416 131.476C94.9503 128.515 89.0291 124.364 84.6525 119.022C80.3403 113.679 78.1841 106.728 78.1841 98.1684C78.1841 90.8955 80.115 84.4272 83.9767 78.7634C87.8384 73.0996 92.9873 68.5621 99.4235 65.1509C105.924 61.6754 113.068 59.5192 120.856 58.6826V38.7948H135.048V58.6826C141.355 59.3262 147.405 60.8708 153.198 63.3166C159.054 65.7624 164.171 69.0126 168.548 73.0674C172.925 77.0578 176.111 81.8205 178.105 87.3557L159.087 94.2102C157.992 91.0565 155.901 88.3211 152.811 86.0041C149.722 83.6227 145.989 81.7562 141.612 80.4046C137.301 79.053 132.731 78.3772 127.903 78.3772Z" fill="#FFFCF5"/>
<defs>
<linearGradient id="paint0_linear_10907_1098" x1="4.28507" y1="525.373" x2="265.669" y2="522.472" gradientUnits="userSpaceOnUse">
<stop stop-color="#7A8FD9"/>
<stop offset="1" stop-color="#AC62E4"/>
</linearGradient>
</defs>
</svg>

<svg xmlns="http://www.w3.org/2000/svg" fill="none" viewBox="0 0 256 256"><path fill="url(#paint0_linear_10907_1098)" d="M128 256c70.692 0 128-57.308 128-128S198.692 0 128 0 0 57.308 0 128s57.308 128 128 128"/><path fill="#FFFCF5" d="M127.903 78.377q-7.724-.096-14.481 2.51-6.661 2.51-10.909 6.951t-4.248 10.33q0 7.242 3.958 11.006t10.62 5.6q6.757 1.737 15.06 3.186 13.323 2.123 24.619 7.047 11.391 4.925 18.246 13.13 6.951 8.11 6.951 19.984 0 10.91-5.792 19.405-5.793 8.4-15.544 13.613-9.654 5.117-21.335 6.468v19.598h-14.192v-19.598q-9.752-.965-18.536-4.634-8.69-3.669-15.157-9.751-6.469-6.082-9.365-14.095l18.826-7.048q1.641 4.635 6.275 8.303 4.73 3.572 11.199 5.6 6.565 2.027 13.805 2.027 7.725 0 14.482-2.51 6.854-2.511 11.006-6.951 4.248-4.44 4.248-10.427 0-6.179-4.441-10.137-4.345-3.958-11.199-6.275-6.758-2.317-14.096-3.476-14.191-2.317-25.487-6.757-11.199-4.441-17.763-12.454-6.47-8.014-6.469-20.854 0-10.908 5.793-19.405 5.792-8.494 15.447-13.612 9.75-5.214 21.432-6.468V38.795h14.192v19.888a62.8 62.8 0 0 1 18.15 4.634q8.784 3.668 15.35 9.75 6.566 5.986 9.557 14.289l-19.018 6.854q-1.642-4.73-6.276-8.206-4.633-3.572-11.199-5.6-6.467-2.027-13.709-2.027"/><defs><linearGradient id="paint0_linear_10907_1098" x1="4.285" x2="265.669" y1="525.373" y2="522.472" gradientUnits="userSpaceOnUse"><stop stop-color="#7A8FD9"/><stop offset="1" stop-color="#AC62E4"/></linearGradient></defs></svg>
